src/cmd/lc_imagemapdialog.svg

<svg viewBox="0 0 24 24" xmlns="http://www.w3.org/2000/svg"><path d="m11 18c-.55229 0-1 .44772-1 1s.44771 1 1 1c.55228 0 1-.44772 1-1s-.44772-1-1-1zm4 0c-.55229 0-1 .44772-1 1s.44771 1 1 1c.55228 0 1-.44772 1-1s-.44772-1-1-1zm4 0c-.55229 0-1 .44772-1 1s.44771 1 1 1c.55228 0 1-.44772 1-1s-.44772-1-1-1z" fill="#e95420"/><path d="m4 4v16h5v-1h-4v-6h8v-1-7h6v8 4h1v-13zm1 1h7v7h-7zm3.5 1c-1.385 0-2.5 1.115-2.5 2.5s1.115 2.5 2.5 2.5 2.5-1.115 2.5-2.5-1.115-2.5-2.5-2.5zm0 1c.831 0 1.5.669 1.5 1.5s-.669 1.5-1.5 1.5-1.5-.669-1.5-1.5.669-1.5 1.5-1.5zm6.5 5-3.34375 3.34375-1.34375-1.34375h-.03125l-3.59375 3.625.6875.6875 2.9375-2.90625.625.65625.71875.6875.6875-.6875 2.65625-2.65625 2.28125 2.28125.71875-.6875z" fill="#232629"/></svg>

<?xml version="1.0" encoding="UTF-8" standalone="no"?>
<svg
   xmlns:dc="http://purl.org/dc/elements/1.1/"
   xmlns:cc="http://creativecommons.org/ns#"
   xmlns:rdf="http://www.w3.org/1999/02/22-rdf-syntax-ns#"
   xmlns:svg="http://www.w3.org/2000/svg"
   xmlns="http://www.w3.org/2000/svg"
   xmlns:sodipodi="http://sodipodi.sourceforge.net/DTD/sodipodi-0.dtd"
   xmlns:inkscape="http://www.inkscape.org/namespaces/inkscape"
   viewBox="0 0 24 24"
   version="1.1"
   id="svg6"
   sodipodi:docname="lc_imagemapdialog.svg"
   inkscape:version="0.92.4 (5da689c313, 2019-01-14)">
  <metadata
     id="metadata12">
    <rdf:RDF>
      <cc:Work
         rdf:about="">
        <dc:format>image/svg+xml</dc:format>
        <dc:type
           rdf:resource="http://purl.org/dc/dcmitype/StillImage" />
      </cc:Work>
    </rdf:RDF>
  </metadata>
  <defs
     id="defs10" />
  <sodipodi:namedview
     pagecolor="#ffffff"
     bordercolor="#666666"
     borderopacity="1"
     objecttolerance="10"
     gridtolerance="10"
     guidetolerance="10"
     inkscape:pageopacity="0"
     inkscape:pageshadow="2"
     inkscape:window-width="1920"
     inkscape:window-height="1011"
     id="namedview8"
     showgrid="true"
     inkscape:zoom="39.333333"
     inkscape:cx="8.1271241"
     inkscape:cy="6.0750092"
     inkscape:window-x="0"
     inkscape:window-y="32"
     inkscape:window-maximized="1"
     inkscape:current-layer="svg6">
    <inkscape:grid
       type="xygrid"
       id="grid822" />
  </sodipodi:namedview>
  <path
     d="M 9,19 H 5 v -6 h 8 V 12 5 h 6 v 8 4 2 z M 20,17 V 4 H 4 V 20 H 9 20 Z M 5,5 h 7 v 7 H 5 Z M 8.5,6 C 7.115,6 6,7.115 6,8.5 6,9.885 7.115,11 8.5,11 9.885,11 11,9.885 11,8.5 11,7.115 9.885,6 8.5,6 Z m 0,1 C 9.331,7 10,7.669 10,8.5 10,9.331 9.331,10 8.5,10 7.669,10 7,9.331 7,8.5 7,7.669 7.669,7 8.5,7 Z M 15,12 11.65625,15.34375 10.3125,14 h -0.03125 l -3.59375,3.625 0.6875,0.6875 2.9375,-2.90625 0.625,0.65625 0.71875,0.6875 0.6875,-0.6875 L 15,13.40625 17.28125,15.6875 18,15 Z"
     id="path4"
     inkscape:connector-curvature="0"
     style="fill:#232629"
     sodipodi:nodetypes="cccccccccccccccccccccccsssssssssscccccccccccccc" />
</svg>
